X:106
M:2/4
L:1/8
K:D
| Ad cB | AF DE/F/ | GE BA/G/ | FA D2 | 
| Ad fa | ge ed | c/B/A Bc | ed cB | 

